X:1
T:Sop air an Iochda
M:6/8
L:1/8
R:Pipe Jig
B:James Goodman music manuscript collection, Book 1, p. 19 (mid-19th century)
B:  http://goodman.itma.ie/volume-one#?c=0&m=0&s=0&cv=22&z=902.6451%2C2131.194%2C8098.3776%2C3101.8519
Z:AK/Fiddler’s Companion
K:Dmix
FDD FDD|FDD G2E|FDD FEF|DEE G2E|
FDD FDD|FDD G2E|GBG FAF|DEE G2E:|
DFA d3|ded dAF|DFA dAF|DEE G2E|
DFA d3|ded dAF|GBG FAF|DEE G2E:|]

